**kern	**kern
*clefF4	*clefG2
*k[f#c#]	*k[f#c#]
*M3/4	*M3/4
*MM66	*MM66
=1	=1
4GG	2.r
2B 2d 2f#	.
=2	=2
4DD	2.r
2A 2c# 2f#	.
=3	=3
4GG	2.r
2B 2d 2f#	.
=4	=4
4DD	2.r
2A 2c# 2f#	.
=5	=5
4GG	2.r
2B 2d 2f#	.
=6	=6
4DD	2.r
2A 2c# 2f#	.
=7	=7
4GG	2.r
2B 2d 2f#	.
=8	=8
4DD	2.r
2A 2c# 2f#	.
=9	=9
4GG	2.ff#
2B 2d 2f#	.
=10	=10
4DD	2.aa
2A 2c# 2f#	.
=11	=11
4GG	2.gg
2B 2d 2f#	.
=12	=12
4DD	2.ff#
2A 2c# 2f#	.
=13	=13
4GG	2.cc#
2B 2d 2f#	.
=14	=14
4DD	2.b
2A 2c# 2f#	.
=15	=15
4GG	2.cc#
2B 2d 2f#	.
=16	=16
4DD	2.dd
2A 2c# 2f#	.
=17	=17
4GG	2.a
2B 2d 2f#	.
=18	=18
4DD	2.f#
2A 2c# 2f#	.
=19	=19
4GG	2.f#
2B 2d 2f#	.
=20	=20
4DD	2.f#
2A 2c# 2f#	.
=21	=21
4GG	2.g
2B 2d 2f#	.
=22	=22
4DD	2.f#
2A 2c# 2f#	.
=23	=23
4GG	2.c#
2B 2d 2f#	.
=24	=24
4DD	2.c#
2A 2c# 2f#	.
=25	=25
4GG	2.c#
2B 2d 2f#	.
=26	=26
4DD	2.c#
2A 2c# 2f#	.
=27	=27
4GG	2.c#
2B 2d 2f#	.
=28	=28
4DD	2.ff#
2A 2c# 2f#	.
=29	=29
4GG	2.aa
2B 2d 2f#	.
=30	=30
4DD	2.gg
2A 2c# 2f#	.
=31	=31
2.r	2.ff#
=32	=32
2.r	2.cc#
=33	=33
2.r	2.b
=34	=34
2.r	2.cc#
=35	=35
2.r	2.dd
=36	=36
2.r	2.a
=37	=37
2.r	2.f#
=38	=38
2.r	2.f#
=39	=39
2.r	2.f#
=40	=40
2.r	2.e
=41	=41
2.r	2.f#
=42	=42
2.r	2.g
=43	=43
2.r	2.g
=44	=44
2.r	2.g
=45	=45
2.r	2.g
=46	=46
2.r	2.g
=47	=47
2.r	2.a
=48	=48
2.r	2.b
=49	=49
2.r	2.cc#
=50	=50
2.r	2.dd
=51	=51
2.r	2.ee
=52	=52
2.r	2.ff#
=53	=53
2.r	2.ee
=54	=54
2.r	2.ee
=55	=55
2.r	2.dd
=56	=56
2.r	2.dd
==	==
*-	*-
